!!!COM: Music21
!!!OTL: Xaloucos
!!!OMV: pezas_rumbas_xaloucos_xaloucos-partitura.musicxml
**kern
*part1
*staff1
*I"Gaita
*I'Bag
*clefG^2
*k[b-e-a-]
*E-:
*M2/4
=1
!LO:TX:a:B:t=Ad libitum
*MM40
!LO:TX:a:t=[quarter]=40
4r
16r
16ccLL
16ee-
16ggJJ
=
16ee-LL
16ff
16ee-
16ddJJ
16ccLL
16dd
16ee-
16ccJJ
=
16ddKL
8bn
[16ggJk
16ggLL]
16b
16dd
16ggJJ
=
16ddKL
8bn
[16ggJk
16ggLL]
16b
16dd
16ggJJ
=
16ee-LL
16ff
16ee-
16ddJJ
16ccLL
16cc
16ee-
16ggJJ
!!linebreak:original
=
16ee-LL
16ff
16ee-
16ddJJ
16ccLL
16dd
16ee-
16ccJJ
!!linebreak:original
=
16ddKL
8bn
[16ggJk
16ggLL]
16b
16dd
16ggJJ
=
16ee-LL
16ff
16ee-
16ddJJ
16ccLL
16bn
16cc
16ddJJ
=||
*k[]
*C:
*MM110
!LO:TX:a:t=[quarter]=110
[4cc
16ccLL]
16cc
16ee
16ggJJ
=||
8eeL
16ddL
16eeJJ
8ffL
16eeL
16ddJJ
=
8eeL
16ccL
16ddJJ
8eeL
16ddL
16ccJJ
=
8ddL
16bL
16ddJJ
8ffL
16eeL
16ddJJ
!!linebreak:original
=
16eeLL
16cc
16cc
16bJJ
16ccLL
16cc
16ee
16ggJJ
=
8eeL
16ddL
16eeJJ
8ffL
16eeL
16ddJJ
=
8eeL
16ccL
16ddJJ
8eeL
16ddL
16ccJJ
=
8ddL
16bL
16ddJJ
8ffL
16eeL
16ddJJ
=
[4cc
16ccLL]
16cc
16ee
16ggJJ
=||
8eeL
16ddL
16eeJJ
8ffL
16eeL
16ddJJ
!!linebreak:original
=
8eeL
16ccL
16ddJJ
8eeL
16ddL
16ccJJ
=
8ddL
16bL
16ddJJ
8ffL
16eeL
16ddJJ
!!linebreak:original
=
16eeLL
16cc
16cc
16bJJ
16ccLL
16cc
16ee
16ggJJ
=
8eeL
16ddL
16eeJJ
8ffL
16eeL
16ddJJ
=
8eeL
16ccL
16ddJJ
8eeL
16ddL
16ccJJ
=
8ddL
16bL
16ddJJ
8ffL
16eeL
16ddJJ
=
[4cc
16ccLL]
16cc
16ff
16bb-XJJ
!!pagebreak:original
=||
*k[b-]
*F:
16aaLL
16gg
16aa
16bb-JJ
16cccLL
16dd
16ee
16ddJJ
=
16cccLL
16aa
16ff
16aaJJ
16cccLL
16aa
16bb-
16cccJJ
=
16bb-LL
16gg
16ee
16ggJJ
16bb-LL
16gg
16aa
16bb-JJ
=
[4ccc
16cccLL]
16aa
16bb-
16cccJJ
=
16ddLL
16ee
16dd
16cccJJ
16bb-LL
16dd
16ee
16ffJJ
=
16cccLL
16aa
16ff
16aaJJ
16aaLL
16gg
16aa
16bb-JJ
!!linebreak:original
=
16ggLL
16gg
16cc
16eeJJ
16ggLL
16bb-
16gg
16eeJJ
=
[4ff
16ffLL]
16cc
16ff
16bb-JJ
!!linebreak:original
=||
16aaLL
16gg
16aa
16bb-JJ
16cccLL
16dd
16ee
16ddJJ
=
16cccLL
16aa
16ff
16aaJJ
16cccLL
16aa
16bb-
16cccJJ
=
16bb-LL
16gg
16ee
16ggJJ
16bb-LL
16gg
16aa
16bb-JJ
=
[4ccc
16cccLL]
16aa
16bb-
16cccJJ
=
16ddLL
16ee
16dd
16cccJJ
16bb-LL
16dd
16ee
16ffJJ
=
16cccLL
16aa
16ff
16aaJJ
16aaLL
16gg
16aa
16bb-JJ
!!linebreak:original
=
16ggLL
16gg
16cc
16eeJJ
16ggLL
16bb-
16gg
16eeJJ
=
*k[b-e-a-]
*E-:
[4ff
16ffLL]
16cc
16ee-
16ggJJ
=||
16ee-LL
16ff
16ee-
16ddJJ
16ccLL
16dd
16ee-
16ccJJ
=
16ddKL
8bn
[16ggJk
16ggLL]
16b
16dd
16ggJJ
=
16ddKL
8bn
[16ggJk
16ggLL]
16b
16dd
16ggJJ
!!linebreak:original
=
16ee-LL
16ff
16ee-
16ddJJ
16ccLL
16cc
16ee-
16ggJJ
=
16ee-LL
16ff
16ee-
16ddJJ
16ccLL
16dd
16ee-
16ccJJ
=
16ddKL
8bn
[16ggJk
16ggLL]
16b
16dd
16ggJJ
=
16ee-LL
16ff
16ee-
16ddJJ
16ccLL
16bn
16cc
16ddJJ
=
[4cc
16ccLL]
16cc
16ee-
16ggJJ
!!linebreak:original
=||
16ee-LL
16ff
16ee-
16ddJJ
16ccLL
16dd
16ee-
16ccJJ
=
16ddKL
8bn
[16ggJk
16ggLL]
16b
16dd
16ggJJ
=
16ddKL
8bn
[16ggJk
16ggLL]
16b
16dd
16ggJJ
!!linebreak:original
=
16ee-LL
16ff
16ee-
16ddJJ
16ccLL
16cc
16ee-
16ggJJ
=
16ee-LL
16ff
16ee-
16ddJJ
16ccLL
16dd
16ee-
16ccJJ
=
16ddKL
8bn
[16ggJk
16ggLL]
16b
16dd
16ggJJ
=
16ee-LL
16ff
16ee-
16ddJJ
16ccLL
16bn
16cc
16ddJJ
!!pagebreak:original
=
4.cc
32ccLLL
32dd
32een
32ffJJJ
=||
*k[]
*C:
16ggLL
16ee
16cc
16eeJJ
16aaLL
16gg
16ff
16ggJJ
=
16eeLL
16cc
16cc
16bJJ
16ccLL
16dd
16ee
16ffJJ
=
8ffL
16aaL
16ffJJ
16ggLL
16aa
16bb
16ggJJ
=
16cccLL
16gg
16ee
16ccJJ
8ggL
32ccLL
32dd
32ee
32ffJJJ
!!linebreak:original
=
16ggLL
16ccc
16gg
16eeJJ
16ccLL
16b
16cc
16ddJJ
=
16eeLL
16cc
16dd
16bJJ
16ccLL
16b
16cc
16ddJJ
=
16ggLL
16ccc
16gg
16ffJJ
16bbLL
16aa
16gg
16ffJJ
=
8aaL
16ggL
16ffJJ
8eeL
32ccLL
32dd
32ee
32ffJJJ
=||
16ggLL
16ee
16cc
16eeJJ
16aaLL
16gg
16ff
16ggJJ
!!linebreak:original
=
16eeLL
16cc
16cc
16bJJ
16ccLL
16dd
16ee
16ffJJ
=
8ffL
16aaL
16ffJJ
16ggLL
16aa
16bb
16ggJJ
=
16cccLL
16gg
16ee
16ccJJ
8ggL
32ccLL
32dd
32ee
32ffJJJ
!!linebreak:original
=
16ggLL
16ccc
16gg
16eeJJ
16ccLL
16b
16cc
16ddJJ
=
16eeLL
16cc
16dd
16bJJ
16ccLL
16b
16cc
16ddJJ
=
16ggLL
16ccc
16gg
16ffJJ
16bbLL
16aa
16gg
16ffJJ
=
[4ee
16eeLL]
16cc
16ee
16ggJJ
!!linebreak:original
=||
8eeL
16ddL
16eeJJ
8ffL
16eeL
16ddJJ
=
8eeL
16ccL
16ddJJ
8eeL
16ddL
16ccJJ
=
8ddL
16bL
16ddJJ
8ffL
16eeL
16ddJJ
=||
16eeLL
16cc
16cc
16bJJ
16ccLL
16cc
16ee
16ggJJ
=
8eeL
.
16ddL
16eeJJ
8ffL
.
16eeL
16ddJJ
=
8eeL
.
16ccL
16ddJJ
8eeL
.
16ddL
16ccJJ
!!linebreak:original
=
8ddL
.
16bL
16ccJJ
8ffL
16eeL
16ddJJ
=
[4cc
16ccLL]
16cc
16ee
16ggJJ
!!linebreak:original
=||
8eeL
16ddL
16eeJJ
8ffL
16eeL
16ddJJ
=
8eeL
16ccL
16ddJJ
8eeL
16ddL
16ccJJ
=
8ddL
16bL
16ddJJ
8ffL
16eeL
16ddJJ
=||
16eeLL
16cc
16cc
16bJJ
16ccLL
16cc
16ee
16ggJJ
=
8eeL
.
16ddL
16eeJJ
8ffL
.
16eeL
16ddJJ
=
8eeL
.
16ccL
16ddJJ
8eeL
.
16ddL
16ccJJ
!!pagebreak:original
=
8dd
4.b
=
[2b
=
16b]
8r
16dd
8ffL
16eeL
16ddJJ
=
[2cc
.
.
.
.
=
2cc_
.
.
.
.
.
.
.
=
16cc]
16r
8r
4r
!!linebreak:original
==
!LO:TX:a:t=Alternativa a compases 19-25 na segunda repetición
!LO:TX:a:t=Fine
8eeL
.
16ddL
16eeJJ
8ffL
.
16eeL
16ddJJ
=
8eeL
.
16ccL
16ddJJ
8eeL
.
16ddL
16ccJJ
=
8ddL
.
16bL
16ddJJ
8ffL
16eeL
16ddJJ
=
16eeLL
16cc
16cc
16bJJ
16ccLL
16cc
16ee
16ggJJ
=
8eeL
.
16ddL
16eeJJ
8ffL
.
16eeL
16ddJJ
!!linebreak:original
=
8eeL
.
16ccL
16ddJJ
8eeL
.
16ddL
16ccJJ
!!linebreak:original
=
8ddL
.
16bL
16ddJJ
8ffL
16eeL
16ddJJ
==
*-
!!!system-decoration: s1,s2
